X:892
T:Starry Night In Shetland
S:Finlay Allison, Glasgow
Z:Nigel Gatherer
M:3/4
L:1/4
K:D
A    | f2d | ABA | G2G | c2B | A2c    | e2A | f3 | f2
A    | f2d | ABA | G2G | c2B | Ace/f/ | gBc | d3 | d2 ||
e/f/ | gBg | gBg | fAf | fAf | fdf    | agf | e3 | ede |
       f2d | ABA | G2G | c2B | Ace/f/ | gBc | d3 | d2 ||   
<end>
<start>
